src/assets/img/supporters/logo-supporters--nomades--black.svg

<svg fill="none" height="20" viewBox="0 0 114 20" width="114" xmlns="http://www.w3.org/2000/svg"><g fill="#000"><path d="m.767538 2.3852 16.209962 13.6587c.39.3286 1.0054.0654 1.0054-.43v-14.53617c0-.413124-.5524-.589508-.8147-.260168l-6.532 8.198888-9.26556-7.87461c-.71275-.207222-1.3158158.67349-.603102 1.24336z"/><path d="m17.2154 18.238-16.20997-13.65864c-.390005-.32862-1.00543-.06543-1.00543.42998v14.53616c0 .4131.552374.5895.814762.2602l6.531938-8.1989 9.2656 7.8746c.7127.2072 1.3158-.6735.6031-1.2434z"/><path d="m22.6917 18.4046v-15.62868c0-.38306.266-.57459.7979-.57459.4514 0 .8705.35241 1.2573 1.05724l6.5283 12.22713v-12.73277c0-.36773.2659-.5516.7979-.5516.5319 0 .7979.18387.7979.5516v15.65167c0 .1839-.0806.3295-.2418.4367-.1612.1073-.3466.1609-.5561.1609-.403 0-.7576-.2911-1.0639-.8734l-6.7217-12.43399v12.70979c0 .1839-.0806.3295-.2418.4367-.1612.1073-.3465.1609-.5561.1609-.2256 0-.4191-.0536-.5803-.1609-.145-.1072-.2176-.2528-.2176-.4367z"/><path d="m36.3586 14.2217v-7.1249c0-1.68545.4513-2.9189 1.354-3.70033.9188-.79676 2.1438-1.19514 3.6751-1.19514s2.7483.39838 3.651 1.19514c.9188.78143 1.3782 2.01488 1.3782 3.70033v7.1249c0 1.7007-.4594 2.9495-1.3782 3.7463-.9027.7814-2.1197 1.1721-3.651 1.1721s-2.7563-.3907-3.6751-1.1721c-.9027-.7968-1.354-2.0456-1.354-3.7463zm1.5957 0c0 2.3443 1.1445 3.5164 3.4334 3.5164s3.4334-1.1721 3.4334-3.5164v-7.1249c0-2.32899-1.1445-3.49348-3.4334-3.49348s-3.4334 1.16449-3.4334 3.49348z"/><path d="m49.8928 18.4046v-15.4678c0-.49031.2659-.73547.7979-.73547.4674 0 .8946.35241 1.2815 1.05724l4.1587 7.63053 4.1587-7.63053c.3869-.70483.814-1.05724 1.2815-1.05724.5319 0 .7979.24516.7979.73547v15.4678c0 .1839-.0806.3295-.2418.4367-.1451.1073-.3304.1609-.5561.1609-.2096 0-.3949-.0536-.5561-.1609-.1612-.1072-.2418-.2528-.2418-.4367v-12.91664l-4.0137 7.21684c-.1773.3217-.3949.4826-.6528.4826-.2418 0-.4513-.1609-.6286-.4826l-3.9895-7.28579v12.98559c0 .1839-.0806.3295-.2418.4367-.1612.1073-.3466.1609-.5561.1609-.2257 0-.4191-.0536-.5803-.1609-.1451-.1072-.2176-.2528-.2176-.4367z"/><path d="m64.7136 18.3587c0-.0766.008-.1303.0242-.1609l5.0533-15.60575c.1128-.35241.4272-.52862.943-.52862s.8382.17621.9671.52862l5.0292 15.60575v.0689c.0161.0307.0242.0537.0242.069 0 .1839-.1048.3447-.3143.4826-.2096.1226-.4272.1839-.6529.1839-.3062 0-.5077-.1302-.6044-.3907l-1.1123-3.5395h-6.6975l-1.1122 3.5395c-.0645.2605-.274.3907-.6286.3907-.2257 0-.4352-.0613-.6287-.1839-.1934-.1225-.2901-.2758-.2901-.4596zm3.0707-4.5967h5.8754l-2.9256-9.26233z"/><path d="m79.1009 18.4276v-15.67467c0-.15322.0644-.28346.1934-.39071.1451-.10726.3224-.16089.5319-.16089h4.2797c1.5313 0 2.7563.39838 3.6751 1.19514.9188.78143 1.3782 2.01488 1.3782 3.70033v6.987c0 1.7007-.4594 2.9495-1.3782 3.7463-.9188.7814-2.1438 1.1721-3.6751 1.1721h-4.2797c-.2095 0-.3868-.0536-.5319-.1609-.129-.1226-.1934-.2605-.1934-.4137zm1.5957-.8274h3.4093c1.0961 0 1.9423-.2911 2.5387-.8733.6125-.5976.9188-1.4786.9188-2.6431v-6.987c0-1.16449-.3063-2.03786-.9188-2.62011-.5964-.58225-1.4426-.87337-2.5387-.87337h-3.4093z"/><path d="m92.6305 18.4046v-15.62868c0-.18387.0726-.32177.2177-.4137.145-.10726.3143-.16089.5077-.16089h8.6081c.403 0 .604.22217.604.66652 0 .19919-.056.3754-.169.52862-.097.1379-.242.20685-.435.20685h-7.7377v6.32044h3.7961c.1934 0 .3385.06895.4352.20684.1128.1226.1693.2835.1693.4827 0 .4137-.2015.6205-.6045.6205h-3.7961v6.3664h7.7377c.177 0 .322.069.435.2069s.169.3064.169.5056c0 .4597-.201.6895-.604.6895h-8.6081c-.1934 0-.3627-.0536-.5077-.1609-.1451-.1072-.2177-.2528-.2177-.4367z"/><path d="m103.942 16.6809c0-.1839.072-.3677.217-.5516.161-.1992.331-.2988.508-.2988.129 0 .29.0996.484.2988l.677.6665c.241.2452.62.4673 1.136.6665.532.1839 1.144.2758 1.838.2758 1.144 0 2.031-.2681 2.659-.8044.629-.5516.943-1.3407.943-2.3673 0-.6895-.153-1.2717-.459-1.7467-.29-.4903-.669-.8657-1.137-1.1262-.451-.2758-.967-.521-1.547-.7355l-1.741-.6435c-.58-.2145-1.104-.46735-1.572-.75847-.451-.30645-.83-.72781-1.136-1.26409-.29-.5516-.435-1.2028-.435-1.95359 0-.79676.153-1.4786.459-2.04553.323-.58224.75-1.01893 1.282-1.31005.532-.29113 1.072-.49798 1.62-.62055.564-.13791 1.152-.20686 1.765-.20686.983 0 1.902.13791 2.756.41371.871.26047 1.306.5899 1.306.98828 0 .18387-.073.3754-.218.57459-.129.18387-.29.2758-.483.2758-.097 0-.282-.06895-.557-.20685-.274-.15322-.66-.29879-1.16-.43669-.484-.15322-1.04-.22983-1.668-.22983-1.016 0-1.854.20685-2.515.62055s-.991 1.09554-.991 2.04553c0 .65885.193 1.21046.58 1.6548.403.44435.903.76612 1.499.96531s1.241.43668 1.934.71248 1.338.57456 1.935.89636c.596.3064 1.088.8044 1.475 1.4939.403.6742.604 1.5093.604 2.5052 0 1.5782-.459 2.7657-1.378 3.5624-.919.7815-2.16 1.1722-3.724 1.1722-1.402 0-2.579-.2835-3.53-.8504-.951-.5822-1.426-1.1262-1.426-1.6318z"/><path d="m38.7456.5774 2.1652-.4845893c.4197-.1237446.6464-.1237506 1.0826 0l2.1652.4845893c.4965.181719.3453.97177-.3093.89995l-2.0105-.41536c-.3572-.087401-.3572-.087401-.7733 0l-1.9332.41536c-.7486.21547-.9753-.718231-.3867-.89995z"/></g></svg>

<svg width="114" height="20" viewBox="0 0 114 20" fill="none" xmlns="http://www.w3.org/2000/svg">
<path d="M0.767538 2.3852L16.9775 16.0439C17.3675 16.3725 17.9829 16.1093 17.9829 15.6139V1.07773C17.9829 0.664606 17.4305 0.488222 17.1682 0.817562L10.6362 9.01645L1.37064 1.14184C0.65789 0.934618 0.0548242 1.81533 0.767538 2.3852Z" fill="black"/>
<path d="M17.2154 18.238L1.00543 4.57936C0.615425 4.25074 0 4.51393 0 5.00934V19.5455C0 19.9586 0.552374 20.135 0.814762 19.8057L7.3467 11.6068L16.6123 19.4814C17.325 19.6886 17.9281 18.8079 17.2154 18.238Z" fill="black"/>
<path d="M22.6917 18.4046V2.77592C22.6917 2.39286 22.9577 2.20133 23.4896 2.20133C23.941 2.20133 24.3601 2.55374 24.7469 3.25857L31.2752 15.4857V2.75293C31.2752 2.3852 31.5411 2.20133 32.0731 2.20133C32.605 2.20133 32.871 2.3852 32.871 2.75293V18.4046C32.871 18.5885 32.7904 18.7341 32.6292 18.8413C32.468 18.9486 32.2826 19.0022 32.0731 19.0022C31.6701 19.0022 31.3155 18.7111 31.0092 18.1288L24.2875 5.69481V18.4046C24.2875 18.5885 24.2069 18.7341 24.0457 18.8413C23.8845 18.9486 23.6992 19.0022 23.4896 19.0022C23.264 19.0022 23.0705 18.9486 22.9093 18.8413C22.7643 18.7341 22.6917 18.5885 22.6917 18.4046Z" fill="black"/>
<path d="M36.3586 14.2217V7.0968C36.3586 5.41135 36.8099 4.1779 37.7126 3.39647C38.6314 2.59971 39.8564 2.20133 41.3877 2.20133C42.919 2.20133 44.136 2.59971 45.0387 3.39647C45.9575 4.1779 46.4169 5.41135 46.4169 7.0968V14.2217C46.4169 15.9224 45.9575 17.1712 45.0387 17.968C44.136 18.7494 42.919 19.1401 41.3877 19.1401C39.8564 19.1401 38.6314 18.7494 37.7126 17.968C36.8099 17.1712 36.3586 15.9224 36.3586 14.2217ZM37.9543 14.2217C37.9543 16.566 39.0988 17.7381 41.3877 17.7381C43.6766 17.7381 44.8211 16.566 44.8211 14.2217V7.0968C44.8211 4.76781 43.6766 3.60332 41.3877 3.60332C39.0988 3.60332 37.9543 4.76781 37.9543 7.0968V14.2217Z" fill="black"/>
<path d="M49.8928 18.4046V2.9368C49.8928 2.44649 50.1587 2.20133 50.6907 2.20133C51.1581 2.20133 51.5853 2.55374 51.9722 3.25857L56.1309 10.8891L60.2896 3.25857C60.6765 2.55374 61.1036 2.20133 61.5711 2.20133C62.103 2.20133 62.369 2.44649 62.369 2.9368V18.4046C62.369 18.5885 62.2884 18.7341 62.1272 18.8413C61.9821 18.9486 61.7968 19.0022 61.5711 19.0022C61.3615 19.0022 61.1762 18.9486 61.015 18.8413C60.8538 18.7341 60.7732 18.5885 60.7732 18.4046V5.48796L56.7595 12.7048C56.5822 13.0265 56.3646 13.1874 56.1067 13.1874C55.8649 13.1874 55.6554 13.0265 55.4781 12.7048L51.4886 5.41901V18.4046C51.4886 18.5885 51.408 18.7341 51.2468 18.8413C51.0856 18.9486 50.9002 19.0022 50.6907 19.0022C50.465 19.0022 50.2716 18.9486 50.1104 18.8413C49.9653 18.7341 49.8928 18.5885 49.8928 18.4046Z" fill="black"/>
<path d="M64.7136 18.3587C64.7136 18.2821 64.7216 18.2284 64.7378 18.1978L69.7911 2.59205C69.9039 2.23964 70.2183 2.06343 70.7341 2.06343C71.2499 2.06343 71.5723 2.23964 71.7012 2.59205L76.7304 18.1978C76.7304 18.2131 76.7304 18.2361 76.7304 18.2667C76.7465 18.2974 76.7546 18.3204 76.7546 18.3357C76.7546 18.5196 76.6498 18.6804 76.4403 18.8183C76.2307 18.9409 76.0131 19.0022 75.7874 19.0022C75.4812 19.0022 75.2797 18.872 75.183 18.6115L74.0707 15.072H67.3732L66.261 18.6115C66.1965 18.872 65.987 19.0022 65.6324 19.0022C65.4067 19.0022 65.1972 18.9409 65.0037 18.8183C64.8103 18.6958 64.7136 18.5425 64.7136 18.3587ZM67.7843 13.762H73.6597L70.7341 4.49967L67.7843 13.762Z" fill="black"/>
<path d="M79.1009 18.4276V2.75293C79.1009 2.59971 79.1653 2.46947 79.2943 2.36222C79.4394 2.25496 79.6167 2.20133 79.8262 2.20133H84.1059C85.6372 2.20133 86.8622 2.59971 87.781 3.39647C88.6998 4.1779 89.1592 5.41135 89.1592 7.0968V14.0838C89.1592 15.7845 88.6998 17.0333 87.781 17.8301C86.8622 18.6115 85.6372 19.0022 84.1059 19.0022H79.8262C79.6167 19.0022 79.4394 18.9486 79.2943 18.8413C79.1653 18.7187 79.1009 18.5808 79.1009 18.4276ZM80.6966 17.6002H84.1059C85.202 17.6002 86.0482 17.3091 86.6446 16.7269C87.2571 16.1293 87.5634 15.2483 87.5634 14.0838V7.0968C87.5634 5.93231 87.2571 5.05894 86.6446 4.47669C86.0482 3.89444 85.202 3.60332 84.1059 3.60332H80.6966V17.6002Z" fill="black"/>
<path d="M92.6305 18.4046V2.77592C92.6305 2.59205 92.7031 2.45415 92.8482 2.36222C92.9932 2.25496 93.1625 2.20133 93.3559 2.20133H101.964C102.367 2.20133 102.568 2.4235 102.568 2.86785C102.568 3.06704 102.512 3.24325 102.399 3.39647C102.302 3.53437 102.157 3.60332 101.964 3.60332H94.2263V9.92376H98.0224C98.2158 9.92376 98.3609 9.99271 98.4576 10.1306C98.5704 10.2532 98.6269 10.4141 98.6269 10.6133C98.6269 11.027 98.4254 11.2338 98.0224 11.2338H94.2263V17.6002H101.964C102.141 17.6002 102.286 17.6692 102.399 17.8071C102.512 17.945 102.568 18.1135 102.568 18.3127C102.568 18.7724 102.367 19.0022 101.964 19.0022H93.3559C93.1625 19.0022 92.9932 18.9486 92.8482 18.8413C92.7031 18.7341 92.6305 18.5885 92.6305 18.4046Z" fill="black"/>
<path d="M103.942 16.6809C103.942 16.497 104.014 16.3132 104.159 16.1293C104.32 15.9301 104.49 15.8305 104.667 15.8305C104.796 15.8305 104.957 15.9301 105.151 16.1293L105.828 16.7958C106.069 17.041 106.448 17.2631 106.964 17.4623C107.496 17.6462 108.108 17.7381 108.802 17.7381C109.946 17.7381 110.833 17.47 111.461 16.9337C112.09 16.3821 112.404 15.593 112.404 14.5664C112.404 13.8769 112.251 13.2947 111.945 12.8197C111.655 12.3294 111.276 11.954 110.808 11.6935C110.357 11.4177 109.841 11.1725 109.261 10.958L107.52 10.3145C106.94 10.1 106.416 9.84715 105.948 9.55603C105.497 9.24958 105.118 8.82822 104.812 8.29194C104.522 7.74034 104.377 7.08914 104.377 6.33835C104.377 5.54159 104.53 4.85975 104.836 4.29282C105.159 3.71058 105.586 3.27389 106.118 2.98277C106.65 2.69164 107.19 2.48479 107.738 2.36222C108.302 2.22431 108.89 2.15536 109.503 2.15536C110.486 2.15536 111.405 2.29327 112.259 2.56907C113.13 2.82954 113.565 3.15897 113.565 3.55735C113.565 3.74122 113.492 3.93275 113.347 4.13194C113.218 4.31581 113.057 4.40774 112.864 4.40774C112.767 4.40774 112.582 4.33879 112.307 4.20089C112.033 4.04767 111.647 3.9021 111.147 3.7642C110.663 3.61098 110.107 3.53437 109.479 3.53437C108.463 3.53437 107.625 3.74122 106.964 4.15492C106.303 4.56862 105.973 5.25046 105.973 6.20045C105.973 6.8593 106.166 7.41091 106.553 7.85525C106.956 8.2996 107.456 8.62137 108.052 8.82056C108.648 9.01975 109.293 9.25724 109.986 9.53304C110.679 9.80884 111.324 10.1076 111.921 10.4294C112.517 10.7358 113.009 11.2338 113.396 11.9233C113.799 12.5975 114 13.4326 114 14.4285C114 16.0067 113.541 17.1942 112.622 17.9909C111.703 18.7724 110.462 19.1631 108.898 19.1631C107.496 19.1631 106.319 18.8796 105.368 18.3127C104.417 17.7305 103.942 17.1865 103.942 16.6809Z" fill="black"/>
<path d="M38.7456 0.5774L40.9108 0.0928107C41.3305 -0.0309339 41.5572 -0.0309399 41.9934 0.0928107L44.1586 0.5774C44.6551 0.759119 44.5039 1.54917 43.8493 1.47735L41.8388 1.06199C41.4816 0.974589 41.4816 0.974589 41.0655 1.06199L39.1323 1.47735C38.3837 1.69282 38.157 0.759119 38.7456 0.5774Z" fill="black"/>
</svg>
